X:1
T: Griffith Ap Cynan's Delight
C:
R:Reel
Q: 232
K:Dm
M:4/4
L:1/8
|:DE|F2 E2 D2 d^c|d2 AG F2 FG|AB cA B2 AG|EF GE ^C2 DE|
F2 E2 D2 d2|de fd e2 d^c|d2 A2 BA GF|E4 D2:|
A2|d2 de ^c2 A2|d^c de f4|cA cd c2 B2|AB GA F2 A2|
G2 GB AG FE|F2 FA G4|G2 GB AG FE|D2 E2 ^C2 AG|
F2 E2 D2 d2|de fd e2 d^c|d^c dA BA GF|E4 D2||
